X:180
T:Alexanders Hornpipe
O:england
M:4/4
L:1/8
C:Trad
R:Hornpipe
K:D
| 3ABc | dAFA DFAd | fdcd A2 ef | ~g2 ge fdcd | 3efe 3dcB A2 3ABc | dAFA
DFAd | fdcd A2 ef | ~g2 fe fdcd | eddc d2 :|
|AG | FAdA FAdA | GBdB GBdB | Acec Acec | dfaf 3gfe 3cBA | FAdA FAdA |
GBdB GBdB | Acef gecd | eddc d2 :|


